packages/gestalt/src/icons/maximize.svg

<svg width="24" height="24" xmlns="http://www.w3.org/2000/svg"><path fill="#B5B5B5" d="M11 2.25c0 .69-.56 1.25-1.25 1.25H5.268l5.366 5.366a1.25 1.25 0 0 1-1.768 1.768L3.5 5.268V9.75a1.25 1.25 0 0 1-2.5 0V1h8.75c.69 0 1.25.56 1.25 1.25zM21.75 13c.69 0 1.25.56 1.25 1.25V23h-8.75a1.25 1.25 0 0 1 0-2.5h4.482l-5.366-5.366a1.25 1.25 0 0 1 1.768-1.768l5.366 5.366V14.25c0-.69.56-1.25 1.25-1.25z"/></svg>

<svg width="24" height="24" viewBox="0 0 24 24" xmlns="http://www.w3.org/2000/svg"><path fill="#aeaeae" d="M11.00,2.25 C11.00,2.94 10.44,3.50 9.75,3.50 L5.27,3.50 L10.63,8.87 C11.12,9.35 11.12,10.15 10.63,10.63 C10.15,11.12 9.35,11.12 8.87,10.63 L3.50,5.27 L3.50,9.75 C3.50,10.44 2.94,11.00 2.25,11.00 C1.56,11.00 1.00,10.44 1.00,9.75 L1.00,1.00 L9.75,1.00 C10.44,1.00 11.00,1.56 11.00,2.25 Z M21.75,13.00 C22.44,13.00 23.00,13.56 23.00,14.25 L23.00,23.00 L14.25,23.00 C13.56,23.00 13.00,22.44 13.00,21.75 C13.00,21.06 13.56,20.50 14.25,20.50 L18.73,20.50 L13.37,15.13 C12.88,14.65 12.88,13.85 13.37,13.37 C13.85,12.88 14.65,12.88 15.13,13.37 L20.50,18.73 L20.50,14.25 C20.50,13.56 21.06,13.00 21.75,13.00 Z"/></svg>
